!!!OTL: 236. Kozatshke
!!!Genre:	Kozatshke
!!!Mode:	Major
!!!Listening/dance:	dance
!!!:	*e:
!!!One_Mode:	no
**kern
*I"P1
*clefG2
*k[f#]
*G:
*M2/4
*>A
!LO:TX:a:i:t=G-major
=1
(8ddL
16ggL)
16dd'JJ
(16bLL
16dd)
16a
16ccJJ
=2
(16bLL
16dd)
16gg
16ddJJ
(16bLL
16dd)
16a
16ccJJ
=3
16bLL
16dd
16gg
16ff#JJ
8eeL
16aaL
16ggJJ
*>A1
=4
16ff#LL
16dd
16ee
16ff#JJ
8aaL
8ggJ
*>A2
=5:|!
16ff#LL
16dd
16ee
16ff#JJ
8.ggL
16bJk
*>bM
*e:
=6!|:
*>B
16eeLL
(16gg
16ff#)
16eeJJ
16dd#XLL
(16b
16cc#X)
(16dd#JJ
=7
16eeLL)
(16gg
16ff#)
(16eeJJ
16dd#XLL)
(16b
16cc#X)
(16dd#JJ
=8
16eeLL)
(16gg
16ff#)
(16eeJJ
16ff#LL)
(16aa
16gg)
(16ff#JJ
*>B1
=9
16ggLL)
(16bb
16ff#)
(16bbJJ
8eeL)
8bJ
*>B2
=10:|!
16ggLL
(16bb
16ff#)
16bbJJ
4ee
*>eM
==
*-
